!!!OTL: Die Betrogene.
!!!OTL-incipit: ES WOLLTE EIN MAEDCHEN DIE LAEMMELEIN HUETEN
!!!ARE: Europa, Mitteleuropa, Deutschland, Niederrhein
!!!SCT: Z1071
!!!TXL: @@DE
!!!YEM: Copyright 1995, estate of Helmut Schaffrath.
**kern	**text
*ICvox	*
*M6/8	*
*k[b-]	*
*F:	*
!LO:TX:a:t=Vom Niederrhein.	!
{8c	Es
=1	=1
8f	wollte
8c	.
8f	ein
8a	Mädchen
8f	.
8a	die
=2	=2
8cc	Lämme-
8dd	.
8cc	-lein
8a	hüten
8f}	.
{16fL	im
16aJ	.
=3	=3
(4cc	Hol-
8a	.
8b-L	.
8g	.
8ccJ)	.
=4	=4
4a	-ʒe,
8r	.
4r}	.
{8c	da
=5	=5
8fL	kam
8cJ	.
8f	ein
8a	Ritter
8f	.
8a	da-
=6	=6
8ccL	-her-
8ddJ	.
8cc	-ge-
8a	-rit-
8f}	-ten
{16fL	ſo
16aJ	.
=7	=7
(4cc	ſtol-
8a	.
8b-L	.
8g	.
8ccJ	.
=8	=8
4a)	-ʒe:
8r	.
4r}	.
{8a	Feins
=9	=9
8a	Mädchen,
8g	.
8g	feins
8g	Mädchen,
8f	.
8f	was
=10	=10
8a	macheſt
8b-/	.
16aL	du
16gJ	.
4f}	hier?
{8b-/	hüt'ſt
=11	=11
8b-/	du
8b-/	dir
8b-/	die
8b-/	Lämmlein
8cc/	.
8dd/	und
=12	=12
8dd/	weideſt
8cc/	.
8cc/	ſie
4cc/}	dir,
{16cc/L	hüt'ſt
16ffJ	.
=13	=13
8ff/	du
8cc/	dir
8cc/	die
8cc/	Lämmlein
8b-/	.
8a	im
=14	=14
(>4.b-/	Hol-
8gL	.
8ccJ	.
8b-/	.
=15	=15
4a)	-ʒe?
8r	.
4r}	.
==	==
!!!AGN: Romanze, Ballade
!!!ONB: ESAC (Essen Associative Code) Database: ZUCCAL
!!!AMT: compound duple
!!!AIN: vox
!!!EED: Helmut Schaffrath
!!!EEV: 1.0
!!!RDF**kern: >= above
!!!GTL: II. Gau- Leuschen.
!!!URL-scan: https://www.digitale-sammlungen.de/de/view/bsb11160573?page=154
!!!ENC: Anna Maria Matuszewska
!!!EEV: 2025/03/02
*-	*-
